!!!PDT:	1923
!!!LANG: Non-Tone
!!!LING_GROUP: Siouan
!!!REG: Dakotas
!!!COM: Anon.
!!!OTL: Enemies Are Many
!!!ODT: <1918//
!!!MPN: Pau [Wounded Face]
!!!MLC: Fort Berthold Reservation, North Dakota, United States of America
!! Song was recorded during either the summer of 1912, 1915, or 1918.
!!!AGN: monody
!!!SOCIAL_FUNCTION: Mandan Black Mouth Society
!!!AMT: irregular
!!!RWG: Transcribed pitches, durations, and meters are only approximate.
!! Drum not recorded.
**kern
*ICvox
*Imale
*clefF4
*k[b-]
*M3/4
*MM69
=1-
(12f
12f
12f)
4.f
8d
=2
8.f
16d-
2c
*M2/4
=3
8c
8c
(12d
12c
12A
*M3/4
=4
8d
8d
8d
8d
(8.f
16d)
*M2/4
=5
8d
8f
8f
8f
=6
8c
8c
8d
8c
*M3/4
=7
8A
8A
8A
8G
8A
8G
=8
4F
4F
8C'
16r
16f
*M2/4
=9
2F
=10
8.D
16G
8G
8F
*M3/4
=11
8.C
16C
2C
*M2/4
=12
[2C
=13
2C]
==
*-
!!!CNT: Mandan
!!!TXO: Mandan
!!!OCY: United States
!!!OCL: Frances Densmore
!!!YOR: Frances Densmore, "Mandan and Hidatsa Music",
!!!YOR: Bulletin 80, page 50, No. 8
!!!PPR: Smithsonian Institution, Bureau of American Ethnology
!!!PPR: Government Printing Office
!!!PDT: 1923
!!!PPP: Washington, DC, United States of America
!!!YEC: Electronic Copyright 2000 David Huron
!!!YER: August 2000
!!!YEN: United States of America
!!!ENC: David Huron
!!!RDT: August 16, 2000
!!!EEV: Release 1.0
!!!AIN: tom, vox
